X:75
T:Howell's Quickstep 
C:Donated by Frank Hewett, Co.K.1st O.V.H.A.
B:American Veteran Fifer #75
M:6/8
L:1/8
Q:1/8=300
K:D
|: D3 F2A|d2f ecA|G2BF2A|E2F GFE|D3 F2A|d2f ecA|dfa gbg|dgf d3 :|
|: f3 a3|gbg ecA|d3 f3|egf age|f3 a3|gbg ecA|dfa gbg|egf d3 :|
